X:1
T:Title
%%score { 1 | 2 }
L:1/8
Q:1/4=89
M:6/8
K:F
V:1 treble nm="Grand Piano"
V:2 bass 
V:1
 AAA A[GB][Ac] | [Ac][GB][FA] [EG]3 | [EG][EG][EG] [EG][FA][GB] | [GB][FA][EG] F3 | [DF]3 [CE]2 D | %5
w: J.~H.~Fillmore * * * * *|||||
 C3 F2 A | [EG]3 [DF]2 [EG] | A6 | AAA A[GB][Ac] | [Ac][GB][FA] [EG]3 | [EG][EG][EG] [EG][FA][GB] | %11
w: ||||||
 [GB][FA][EG] F3 | [DF]3 [CE]2 D | C3 F2 A | [EG]3 F2 E | F6 |] %16
w: |||||
V:2
 [F,CF][F,CF][F,CF] [F,CF][F,C][F,C] | [F,C][F,C][F,C] [C,C]3 | [C,C][C,C][C,C] [C,C][C,C][C,C] | %3
 [C,C][C,C][C,B,] [D,A,]3 | [B,,B,]3 [B,,B,]2 [D,F,B,] | [F,A,]3 [F,A,C]2 [F,CF] | %6
 [C,C]3 [C,C]2 [C,C] | [F,CF]6 | [F,CF][F,CF][F,CF] [F,CF][F,C][F,C] | [F,C][F,C][F,C] [C,C]3 | %10
 [C,C][C,C][C,C] [C,C][C,C][C,C] | [C,C][C,C][C,B,] [D,A,]3 | [B,,B,]3 [B,,B,]2 [D,F,B,] | %13
 [F,A,]3 [F,A,C]2 [F,CF] | [C,B,]3 [C,A,C]2 [C,G,C] | [F,A,C]6 |] %16

